img/icon-seed-white.svg

<svg width="76" height="76" viewBox="0 0 76 76" fill="none" xmlns="http://www.w3.org/2000/svg">
<g clip-path="url(#clip0_232_86)">
<path d="M33.2129 66.4236C33.2129 71.7116 38.0009 75.9986 38.0009 75.9986C38.0009 75.9986 42.7879 71.7116 42.7879 66.4236C42.7879 61.1356 38.0009 56.8496 38.0009 56.8496C38.0009 56.8496 33.2129 61.1356 33.2129 66.4236Z" fill="white"/>
<path d="M63.1708 54.176C60.4583 61.6287 51.5108 65.2159 51.5108 65.2159C51.5108 65.2159 46.962 56.7177 49.6748 49.264C52.3877 41.8103 61.3348 38.2241 61.3348 38.2241C61.3348 38.2241 65.8836 46.7223 63.1708 54.176Z" fill="white"/>
<path d="M26.3292 49.2639C29.0421 56.7175 24.4933 65.2157 24.4933 65.2157C24.4933 65.2157 15.5458 61.6285 12.8333 54.1758C10.1205 46.7221 14.6684 38.2243 14.6684 38.2243C14.6684 38.2243 23.6164 41.8102 26.3292 49.2639Z" fill="white"/>
<path d="M27.2295 21.543C27.2295 33.441 38.0005 43.085 38.0005 43.085C38.0005 43.085 48.7735 33.441 48.7735 21.543C48.7735 9.64402 38.0005 -0.000976562 38.0005 -0.000976562C38.0005 -0.000976562 27.2295 9.64402 27.2295 21.543Z" fill="white"/>
</g>
<defs>
<clipPath id="clip0_232_86">
<rect width="76" height="76" fill="white"/>
</clipPath>
</defs>
</svg>

<svg width="76" height="76" fill="none" xmlns="http://www.w3.org/2000/svg"><g clip-path="url(#clip0_232_86)"><path d="M33.213 66.424c0 5.288 4.788 9.575 4.788 9.575s4.787-4.287 4.787-9.575c0-5.288-4.787-9.574-4.787-9.574s-4.788 4.286-4.788 9.574zM63.17 54.176c-2.713 7.453-11.66 11.04-11.66 11.04s-4.549-8.498-1.836-15.952c2.713-7.454 11.66-11.04 11.66-11.04s4.549 8.498 1.836 15.952zm-36.842-4.912c2.713 7.453-1.836 15.952-1.836 15.952s-8.947-3.587-11.66-11.04c-2.713-7.454 1.835-15.952 1.835-15.952s8.948 3.586 11.661 11.04zm.9-27.721c0 11.898 10.772 21.542 10.772 21.542s10.773-9.644 10.773-21.542C48.773 9.644 38-.001 38-.001S27.23 9.644 27.23 21.543z" fill="#fff"/></g><defs><clipPath id="clip0_232_86"><path fill="#fff" d="M0 0H76V76H0z"/></clipPath></defs></svg>
